**harm	**harte	**kern	**silbe	**kern	**silbe	**kern	**silbe	**rhyme	**timestamp	**phrase	**leadinstrument
*M4/4	*M4/4	*ICvox	*	*ICvox	*	*ICvox	*	*	*	*	*
*	*	*VRlead	*	*VRharmonize	*	*VRharmonize	*	*	*	*	*
*	*	*Hstimme	*	*Nstimme	*	*Nstimme	*	*	*	*	*
*G:	*G:	*G:	*	*G:	*	*G:	*	*	*	*	*
*	*	*M4/4	*	*M4/4	*	*M4/4	*	*	*	*	*
*	*	*clefG2	*	*clefG2	*	*clefG2	*	*	*	*	*
1r;	N	r;	.	r;	.	r;	.	.	0	.	r
=1	=1	=1	=1	=1	=1	=1	=1	=1	=1	=1	=1
*>Letter>A	*>Letter>A	*>Letter>A	*>Letter>A	*>Letter>A	*>Letter>A	*>Letter>A	*>Letter>A	*>Letter>A	*>Letter>A	*>Letter>A	*>Letter>A
*>Label>Intro	*>Label>Intro	*>Label>Intro	*>Label>Intro	*>Label>Intro	*>Label>Intro	*>Label>Intro	*>Label>Intro	*>Label>Intro	*>Label>Intro	*>Label>Intro	*>Label>Intro
1r	N	1r	.	1r	.	1r	.	.	0.424	newline	r
=2	=2	=2	=2	=2	=2	=2	=2	=2	=2	=2	=2
1r	N	1r	.	1r	.	1r	.	.	2.618	.	r
=3	=3	=3	=3	=3	=3	=3	=3	=3	=3	=3	=3
1r	N	1r	.	1r	.	1r	.	.	4.812	.	r
=4	=4	=4	=4	=4	=4	=4	=4	=4	=4	=4	=4
1r	N	1r	.	1r	.	1r	.	.	7.006	.	r
=5	=5	=5	=5	=5	=5	=5	=5	=5	=5	=5	=5
1I	G:maj	1r	.	1r	.	1r	.	.	9.2	newline	r
=6	=6	=6	=6	=6	=6	=6	=6	=6	=6	=6	=6
1I	G:maj	1r	.	1r	.	1r	.	.	11.322	.	r
=7	=7	=7	=7	=7	=7	=7	=7	=7	=7	=7	=7
1I	G:maj	1r	.	1r	.	1r	.	.	13.445	.	r
=8	=8	=8	=8	=8	=8	=8	=8	=8	=8	=8	=8
1I	G:maj	2r	.	1r	.	1r	.	.	15.567	.	r
.	.	4.r	.	.	.	.	.	.	.	.	.
.	.	8G	I	.	.	.	.	.	.	.	.
=9	=9	=9	=9	=9	=9	=9	=9	=9	=9	=9	=9
*>Letter>B	*>Letter>B	*>Letter>B	*>Letter>B	*>Letter>B	*>Letter>B	*>Letter>B	*>Letter>B	*>Letter>B	*>Letter>B	*>Letter>B	*>Letter>B
*>Label>Verse	*>Label>Verse	*>Label>Verse	*>Label>Verse	*>Label>Verse	*>Label>Verse	*>Label>Verse	*>Label>Verse	*>Label>Verse	*>Label>Verse	*>Label>Verse	*>Label>Verse
1I	G:maj	8B	met	1r	.	1r	.	.	17.69	newline	voice
.	.	8G	a	.	.	.	.	.	.	.	.
.	.	4r	.	.	.	.	.	.	.	.	.
.	.	8G	gin	.	.	.	.	.	.	.	.
.	.	4G	soaked	.	.	.	.	.	.	.	.
.	.	[8B	bar-	.	.	.	.	.	.	.	.
=10	=10	=10	=10	=10	=10	=10	=10	=10	=10	=10	=10
1I	G:maj	8B]	_	2r	.	1r	.	.	19.78	.	voice
.	.	8A	-room	.	.	.	.	.	.	.	.
.	.	8G	_	.	.	.	.	.	.	.	.
.	.	4G	queen	.	.	.	.	A	.	.	.
.	.	.	.	4.r	.	.	.	.	.	.	.
.	.	8G	in	.	.	.	.	.	.	.	.
.	.	8E	_	.	.	.	.	.	.	.	.
.	.	8E	Mem-	8E	Mem-	.	.	.	.	.	.
=11	=11	=11	=11	=11	=11	=11	=11	=11	=11	=11	=11
2.IV	C:maj	2G	-phis	4G	-phis	1r	.	.	21.869	.	voice
.	.	.	.	4r	.	.	.	.	.	.	.
.	.	2r	.	2r	.	.	.	.	.	.	.
4IV	C:sus4	.	.	.	.	.	.	.	23.437	.	voice
=12	=12	=12	=12	=12	=12	=12	=12	=12	=12	=12	=12
1IV	C:maj	2r	.	1r	.	1r	.	.	23.959	.	voice
.	.	4.r	.	.	.	.	.	.	.	.	.
.	.	8G	She	.	.	.	.	.	.	.	.
=13	=13	=13	=13	=13	=13	=13	=13	=13	=13	=13	=13
1I	G:maj	8B	tried	1r	.	1r	.	.	26.049	newline	voice
.	.	8A	_	.	.	.	.	.	.	.	.
.	.	8G	to	.	.	.	.	.	.	.	.
.	.	8A	take	.	.	.	.	.	.	.	.
.	.	8G	_	.	.	.	.	.	.	.	.
.	.	8G	me	.	.	.	.	.	.	.	.
.	.	8r	.	.	.	.	.	.	.	.	.
.	.	[8B	up-	.	.	.	.	.	.	.	.
=14	=14	=14	=14	=14	=14	=14	=14	=14	=14	=14	=14
1II	A:maj	8B]	_	2r	.	1r	.	.	28.124	.	voice
.	.	8A	-stairs	.	.	.	.	.	.	.	.
.	.	4G	_	.	.	.	.	.	.	.	.
.	.	8G	for	4.r	.	.	.	.	.	.	.
.	.	4G	a	.	.	.	.	.	.	.	.
.	.	[8A	ride	[8A	ride	.	.	B	.	.	.
=15	=15	=15	=15	=15	=15	=15	=15	=15	=15	=15	=15
2.V	D:maj	4A]	_	4A]	_	1r	.	.	30.2	.	voice
.	.	4r	.	4r	.	.	.	.	.	.	.
.	.	2r	.	2r	.	.	.	.	.	.	.
4V	D:sus4	.	.	.	.	.	.	.	31.757	.	voice
=16	=16	=16	=16	=16	=16	=16	=16	=16	=16	=16	=16
1V	D:maj	2r	.	1r	.	1r	.	.	32.276	.	voice
.	.	4.r	.	.	.	.	.	.	.	.	.
.	.	8G	She	.	.	.	.	.	.	.	.
=17	=17	=17	=17	=17	=17	=17	=17	=17	=17	=17	=17
1I	G:maj	8B	had	1r	.	1r	.	.	34.351	newline	voice
.	.	8G	to	.	.	.	.	.	.	.	.
.	.	4r	.	.	.	.	.	.	.	.	.
.	.	4G	heave	.	.	.	.	A	.	.	.
.	.	8G	me	.	.	.	.	.	.	.	.
.	.	[8B	right	.	.	.	.	.	.	.	.
=18	=18	=18	=18	=18	=18	=18	=18	=18	=18	=18	=18
1I	G:maj	8B]	_	2r	.	1r	.	.	36.408	.	voice
.	.	4A	a-	.	.	.	.	.	.	.	.
.	.	4G	-cross	.	.	.	.	.	.	.	.
.	.	.	.	4.r	.	.	.	.	.	.	.
.	.	4G	her	.	.	.	.	.	.	.	.
.	.	[8E	shoul-	[8E	shoul-	.	.	.	.	.	.
=19	=19	=19	=19	=19	=19	=19	=19	=19	=19	=19	=19
2.IV	C:maj	8E]	_	8E]	_	1r	.	.	38.465	.	voice
.	.	4.G	-der	4.G	-der	.	.	.	.	.	.
.	.	2r	.	2r	.	.	.	.	.	.	.
4IV	C:sus4	.	.	.	.	.	.	.	40.008	.	voice
=20	=20	=20	=20	=20	=20	=20	=20	=20	=20	=20	=20
1IV	C:maj	2r	.	2r	.	1r	.	.	40.522	.	voice
.	.	8r	.	8r	.	.	.	.	.	.	.
.	.	8G	'Cause	8G	'Cause	.	.	.	.	.	.
.	.	8G	I	8G	I	.	.	.	.	.	.
.	.	[8g	just	[8g	just	.	.	.	.	.	.
=21	=21	=21	=21	=21	=21	=21	=21	=21	=21	=21	=21
1I	G:maj	8g]	_	8g]	_	1r	.	.	42.58	newline	voice
.	.	4g	can't	4g	can't	.	.	.	.	.	.
.	.	4B-	seem	4g	seem	.	.	A	.	.	.
.	.	8G	to	8g	to	.	.	.	.	.	.
.	.	4r	.	4r	.	.	.	.	.	.	.
=22	=22	=22	=22	=22	=22	=22	=22	=22	=22	=22	=22
1V	D:maj	4d	drink	8f	drink	1r	.	A	44.602	.	voice
.	.	.	.	8e	_	.	.	.	.	.	.
.	.	8G	her	8d	her	.	.	.	.	.	.
.	.	4g	off	4g	off	.	.	.	.	.	.
.	.	8B-	my	4g	my	.	.	.	.	.	.
.	.	8A	_	.	.	.	.	.	.	.	.
.	.	[8G	mind	[8g	mind	.	.	B	.	.	.
=23	=23	=23	=23	=23	=23	=23	=23	=23	=23	=23	=23
1I	G:maj	4G]	_	4g]	_	1r	.	.	46.624	.	voice
.	.	4r	.	4r	.	.	.	.	.	.	.
.	.	2r	.	2r	.	.	.	.	.	.	.
=24	=24	=24	=24	=24	=24	=24	=24	=24	=24	=24	=24
1I	G:maj	2r	.	2r	.	1r	.	.	48.647	.	voice
.	.	8r	.	8r	.	.	.	.	.	.	.
.	.	8g	It's	8G	It's	.	.	.	.	.	.
.	.	8g	a	8G	a	.	.	.	.	.	.
.	.	[8b	hon-	[8g	hon-	.	.	.	.	.	.
=25	=25	=25	=25	=25	=25	=25	=25	=25	=25	=25	=25
*>Letter>C	*>Letter>C	*>Letter>C	*>Letter>C	*>Letter>C	*>Letter>C	*>Letter>C	*>Letter>C	*>Letter>C	*>Letter>C	*>Letter>C	*>Letter>C
*>Label>Chorus	*>Label>Chorus	*>Label>Chorus	*>Label>Chorus	*>Label>Chorus	*>Label>Chorus	*>Label>Chorus	*>Label>Chorus	*>Label>Chorus	*>Label>Chorus	*>Label>Chorus	*>Label>Chorus
1I	G:maj	2b_	_	2g_	_	1r	.	.	50.669	newline	voice
.	.	8b]	_	8g]	_	.	.	.	.	.	.
.	.	8a	_	8e	_	.	.	.	.	.	.
.	.	8g	_	8c	_	.	.	.	.	.	.
.	.	8e#	_	8c#	_	.	.	.	.	.	.
=26	=26	=26	=26	=26	=26	=26	=26	=26	=26	=26	=26
1V	D:maj	[2f#	_	[2d	_	1r	.	.	52.686	.	voice
.	.	8f#]	_	8d]	_	.	.	.	.	.	.
.	.	8g	-ky	8d	-ky	.	.	.	.	.	.
.	.	4g	tonk	4B-	tonk	.	.	.	.	.	.
=27	=27	=27	=27	=27	=27	=27	=27	=27	=27	=27	=27
1I	G:maj	16b	wo-	16G	wo-	1r	.	.	54.702	.	voice
.	.	8.b	-man	8.G	-man	.	.	.	.	.	.
.	.	4r	.	4r	.	.	.	.	.	.	.
.	.	2r	.	2r	.	.	.	.	.	.	.
=28	=28	=28	=28	=28	=28	=28	=28	=28	=28	=28	=28
1I	G:maj	1r	.	1r	.	1r	.	.	56.718	.	voice
=29	=29	=29	=29	=29	=29	=29	=29	=29	=29	=29	=29
1I	G:maj	8b	Give	8g	Give	1r	.	.	58.735	newline	voice
.	.	4.b	me	4.g	me	.	.	.	.	.	.
.	.	8g	Give	8d	Give	.	.	.	.	.	.
.	.	4g	me	4d	me	.	.	.	.	.	.
.	.	8r	.	8r	.	.	.	.	.	.	.
=30	=30	=30	=30	=30	=30	=30	=30	=30	=30	=30	=30
1V	D:maj	8f#	Give	8d	Give	1r	.	.	60.706	.	voice
.	.	4f#	me	4d	me	.	.	.	.	.	.
.	.	8f#	the	8d	the	.	.	.	.	.	.
.	.	8f#	hon-	8d	hon-	.	.	.	.	.	.
.	.	8f#	-ky	8d	-ky	.	.	.	.	.	.
.	.	4d	tonk	8B-	tonk	.	.	.	.	.	.
.	.	.	.	8A	_	.	.	.	.	.	.
=31	=31	=31	=31	=31	=31	=31	=31	=31	=31	=31	=31
1I	G:maj	4d	blues	4G	blues	1r	.	.	62.678	.	voice
.	.	4r	.	4r	.	.	.	.	.	.	.
.	.	2r	.	2r	.	.	.	.	.	.	.
=32	=32	=32	=32	=32	=32	=32	=32	=32	=32	=32	=32
1I	G:maj	2r	.	1r	.	1r	.	.	64.649	.	voice
.	.	4.r	.	.	.	.	.	.	.	.	.
.	.	8G	I	.	.	.	.	.	.	.	.
=33	=33	=33	=33	=33	=33	=33	=33	=33	=33	=33	=33
*>Letter>B	*>Letter>B	*>Letter>B	*>Letter>B	*>Letter>B	*>Letter>B	*>Letter>B	*>Letter>B	*>Letter>B	*>Letter>B	*>Letter>B	*>Letter>B
*>Label>Verse	*>Label>Verse	*>Label>Verse	*>Label>Verse	*>Label>Verse	*>Label>Verse	*>Label>Verse	*>Label>Verse	*>Label>Verse	*>Label>Verse	*>Label>Verse	*>Label>Verse
1I	G:maj	8B	laid	1r	.	1r	.	.	66.62	newline	voice
.	.	8G	a	.	.	.	.	.	.	.	.
.	.	4r	.	.	.	.	.	.	.	.	.
.	.	8G	di-	.	.	.	.	.	.	.	.
.	.	4G	-vor-	.	.	.	.	.	.	.	.
.	.	[8B	-cee	.	.	.	.	A	.	.	.
=34	=34	=34	=34	=34	=34	=34	=34	=34	=34	=34	=34
1I	G:maj	8B]	_	2r	.	1r	.	.	68.62	.	voice
.	.	8A	in	.	.	.	.	.	.	.	.
.	.	8G	_	.	.	.	.	.	.	.	.
.	.	4G	New	.	.	.	.	.	.	.	.
.	.	.	.	4.r	.	.	.	.	.	.	.
.	.	4G	York	.	.	.	.	.	.	.	.
.	.	8E	ci-	8E	ci-	.	.	.	.	.	.
=35	=35	=35	=35	=35	=35	=35	=35	=35	=35	=35	=35
2.IV	C:maj	2G	-ty	4G	-ty	1r	.	A	70.62	.	voice
.	.	.	.	4r	.	.	.	.	.	.	.
.	.	2r	.	2r	.	.	.	.	.	.	.
4IV	C:sus4	.	.	.	.	.	.	.	72.12	.	voice
=36	=36	=36	=36	=36	=36	=36	=36	=36	=36	=36	=36
1IV	C:maj	2r	.	1r	.	1r	.	.	72.62	.	voice
.	.	4.r	.	.	.	.	.	.	.	.	.
.	.	8G	I	.	.	.	.	.	.	.	.
=37	=37	=37	=37	=37	=37	=37	=37	=37	=37	=37	=37
1I	G:maj	8B	had	1r	.	1r	.	.	74.62	newline	voice
.	.	8d	to	.	.	.	.	.	.	.	.
.	.	4r	.	.	.	.	.	.	.	.	.
.	.	8B	put	.	.	.	.	.	.	.	.
.	.	8A	_	.	.	.	.	.	.	.	.
.	.	8G	up	.	.	.	.	.	.	.	.
.	.	[8B	some	.	.	.	.	.	.	.	.
=38	=38	=38	=38	=38	=38	=38	=38	=38	=38	=38	=38
1II	A:maj	8B]	_	2r	.	1r	.	.	76.61	.	voice
.	.	8B	kind	.	.	.	.	.	.	.	.
.	.	4G	_	.	.	.	.	.	.	.	.
.	.	8G	of	4.r	.	.	.	.	.	.	.
.	.	4G	a	.	.	.	.	.	.	.	.
.	.	[8A	fight	[8A	fight	.	.	B	.	.	.
=39	=39	=39	=39	=39	=39	=39	=39	=39	=39	=39	=39
2.V	D:maj	4A]	_	4A]	_	1r	.	.	78.6	.	voice
.	.	4r	.	4r	.	.	.	.	.	.	.
.	.	2r	.	2r	.	.	.	.	.	.	.
4V	D:sus4	.	.	.	.	.	.	.	80.092	.	voice
=40	=40	=40	=40	=40	=40	=40	=40	=40	=40	=40	=40
1V	D:maj	2r	.	1r	.	1r	.	.	80.59	.	voice
.	.	4.r	.	.	.	.	.	.	.	.	.
.	.	8G	The	.	.	.	.	.	.	.	.
=41	=41	=41	=41	=41	=41	=41	=41	=41	=41	=41	=41
1I	G:maj	8B	la-	1r	.	1r	.	.	82.58	newline	voice
.	.	8G	-dy	.	.	.	.	a	.	.	.
.	.	4r	.	.	.	.	.	.	.	.	.
.	.	8G	then	.	.	.	.	.	.	.	.
.	.	4G	she	.	.	.	.	a	.	.	.
.	.	[8B	co-	.	.	.	.	.	.	.	.
=42	=42	=42	=42	=42	=42	=42	=42	=42	=42	=42	=42
1I	G:maj	8B]	_	2r	.	1r	.	.	84.573	.	voice
.	.	4A	-vered	.	.	.	.	.	.	.	.
.	.	4G	me	.	.	.	.	A	.	.	.
.	.	.	.	4.r	.	.	.	.	.	.	.
.	.	4G	in	.	.	.	.	.	.	.	.
.	.	[8E	ro-	[8E	ro-	.	.	.	.	.	.
=43	=43	=43	=43	=43	=43	=43	=43	=43	=43	=43	=43
2.IV	C:maj	8E]	_	8E]	_	1r	.	.	86.566	.	voice
.	.	4.G	-ses	4.G	-ses	.	.	.	.	.	.
.	.	2r	.	2r	.	.	.	.	.	.	.
4IV	C:sus4	.	.	.	.	.	.	.	88.061	.	voice
=44	=44	=44	=44	=44	=44	=44	=44	=44	=44	=44	=44
1IV	C:maj	2r	.	2r	.	1r	.	.	88.56	.	voice
.	.	4.r	.	4.r	.	.	.	.	.	.	.
.	.	8G	She	8G	She	.	.	A	.	.	.
=45	=45	=45	=45	=45	=45	=45	=45	=45	=45	=45	=45
1I	G:maj	8g	blew	8g	blew	1r	.	.	90.553	newline	voice
.	.	4g	my	4g	my	.	.	.	.	.	.
.	.	8B-	nose	4g	nose	.	.	.	.	.	.
.	.	8A	_	.	.	.	.	.	.	.	.
.	.	8G	and	8g	and	.	.	.	.	.	.
.	.	4r	.	4r	.	.	.	.	.	.	.
=46	=46	=46	=46	=46	=46	=46	=46	=46	=46	=46	=46
1V	D:maj	4d	then	8f	then	1r	.	.	92.537	.	voice
.	.	.	.	8e	_	.	.	.	.	.	.
.	.	8G	she	8d	she	.	.	a	.	.	.
.	.	4B-	blew	4g	blew	.	.	.	.	.	.
.	.	8A	my	4g	my	.	.	.	.	.	.
.	.	8G	_	.	.	.	.	.	.	.	.
.	.	[8G	mind	[8g	mind	.	.	B	.	.	.
=47	=47	=47	=47	=47	=47	=47	=47	=47	=47	=47	=47
1I	G:maj	4G]	_	8g]	_	1r	.	.	94.521	.	voice
.	.	.	.	4.r	.	.	.	.	.	.	.
.	.	4r	.	.	.	.	.	.	.	.	.
.	.	2r	.	2r	.	.	.	.	.	.	.
=48	=48	=48	=48	=48	=48	=48	=48	=48	=48	=48	=48
1I	G:maj	2r	.	2r	.	1r	.	.	96.506	.	voice
.	.	8r	.	8r	.	.	.	.	.	.	.
.	.	8g	It's	8g	It's	.	.	.	.	.	.
.	.	8g	a	8g	a	.	.	.	.	.	.
.	.	[8b	hon-	[8g	hon-	.	.	.	.	.	.
=49	=49	=49	=49	=49	=49	=49	=49	=49	=49	=49	=49
*>Letter>C	*>Letter>C	*>Letter>C	*>Letter>C	*>Letter>C	*>Letter>C	*>Letter>C	*>Letter>C	*>Letter>C	*>Letter>C	*>Letter>C	*>Letter>C
*>Label>Chorus	*>Label>Chorus	*>Label>Chorus	*>Label>Chorus	*>Label>Chorus	*>Label>Chorus	*>Label>Chorus	*>Label>Chorus	*>Label>Chorus	*>Label>Chorus	*>Label>Chorus	*>Label>Chorus
1I	G:maj	2b_	_	2g_	_	1r	.	.	98.49	newline	voice
.	.	8b]	_	8g]	_	.	.	.	.	.	.
.	.	8a	_	8e	_	.	.	.	.	.	.
.	.	8g	_	8c	_	.	.	.	.	.	.
.	.	8e#	_	8c#	_	.	.	.	.	.	.
=50	=50	=50	=50	=50	=50	=50	=50	=50	=50	=50	=50
1V	D:maj	[2f#	_	[2d	_	1r	.	.	100.461	.	voice
.	.	8f#]	_	8d]	_	.	.	.	.	.	.
.	.	8g	-ky	8d	-ky	.	.	.	.	.	.
.	.	4g	tonk	4B-	tonk	.	.	.	.	.	.
=51	=51	=51	=51	=51	=51	=51	=51	=51	=51	=51	=51
1I	G:maj	16b	wo-	16G	wo-	1r	.	.	102.433	.	voice
.	.	8.b	-man	8.G	-man	.	.	.	.	.	.
.	.	4r	.	4r	.	.	.	.	.	.	.
.	.	2r	.	2r	.	.	.	.	.	.	.
=52	=52	=52	=52	=52	=52	=52	=52	=52	=52	=52	=52
1I	G:maj	1r	.	1r	.	1r	.	.	104.404	.	voice
=53	=53	=53	=53	=53	=53	=53	=53	=53	=53	=53	=53
1I	G:maj	8b	Give	8g	Give	1r	.	.	106.376	newline	voice
.	.	4.b	me	4.g	me	.	.	.	.	.	.
.	.	8g	Give	8d	Give	.	.	.	.	.	.
.	.	4g	me	4d	me	.	.	.	.	.	.
.	.	8r	.	8r	.	.	.	.	.	.	.
=54	=54	=54	=54	=54	=54	=54	=54	=54	=54	=54	=54
1V	D:maj	8f#	Give	8d	Give	1r	.	.	108.329	.	voice
.	.	4f#	me	4d	me	.	.	.	.	.	.
.	.	8f#	the	8d	the	.	.	.	.	.	.
.	.	8f#	hon-	8d	hon-	.	.	.	.	.	.
.	.	8f#	-ky	8d	-ky	.	.	.	.	.	.
.	.	4d	tonk	8B-	tonk	.	.	.	.	.	.
.	.	.	.	8A	_	.	.	.	.	.	.
=55	=55	=55	=55	=55	=55	=55	=55	=55	=55	=55	=55
1I	G:maj	4d	blues	4G	blues	1r	.	.	110.282	.	voice
.	.	4r	.	4r	.	.	.	.	.	.	.
.	.	8r	.	2r	.	.	.	.	.	.	.
.	.	4g	Yeah	.	.	.	.	.	.	.	.
.	.	[8g	al-	.	.	.	.	.	.	.	.
=56	=56	=56	=56	=56	=56	=56	=56	=56	=56	=56	=56
1I	G:maj	4.g]	_	1r	.	1r	.	.	112.235	.	voice
.	.	8g	-right!	.	.	.	.	.	.	.	.
.	.	2r	.	.	.	.	.	.	.	.	.
=57	=57	=57	=57	=57	=57	=57	=57	=57	=57	=57	=57
*>Letter>B	*>Letter>B	*>Letter>B	*>Letter>B	*>Letter>B	*>Letter>B	*>Letter>B	*>Letter>B	*>Letter>B	*>Letter>B	*>Letter>B	*>Letter>B
*>Label>Solo	*>Label>Solo	*>Label>Solo	*>Label>Solo	*>Label>Solo	*>Label>Solo	*>Label>Solo	*>Label>Solo	*>Label>Solo	*>Label>Solo	*>Label>Solo	*>Label>Solo
1I	G:maj	1r	.	1r	.	1r	.	.	114.189	newline	guitar
=58	=58	=58	=58	=58	=58	=58	=58	=58	=58	=58	=58
1I	G:maj	1r	.	1r	.	1r	.	.	116.139	.	guitar
=59	=59	=59	=59	=59	=59	=59	=59	=59	=59	=59	=59
2.IV	C:maj	1r	.	1r	.	1r	.	.	118.09	.	guitar
4IV	C:sus4	.	.	.	.	.	.	.	119.553	.	guitar
=60	=60	=60	=60	=60	=60	=60	=60	=60	=60	=60	=60
1IV	C:maj	1r	.	1r	.	1r	.	.	120.041	.	guitar
=61	=61	=61	=61	=61	=61	=61	=61	=61	=61	=61	=61
1I	G:maj	1r	.	1r	.	1r	.	.	121.992	newline	guitar
=62	=62	=62	=62	=62	=62	=62	=62	=62	=62	=62	=62
1II	A:maj	1r	.	1r	.	1r	.	.	123.933	.	guitar
=63	=63	=63	=63	=63	=63	=63	=63	=63	=63	=63	=63
2.V	D:maj	1r	.	1r	.	1r	.	.	125.873	.	guitar
4V	D:sus4	.	.	.	.	.	.	.	127.329	.	guitar
=64	=64	=64	=64	=64	=64	=64	=64	=64	=64	=64	=64
1V	D:maj	1r	.	1r	.	1r	.	.	127.814	.	guitar
=65	=65	=65	=65	=65	=65	=65	=65	=65	=65	=65	=65
1I	G:maj	1r	.	1r	.	1r	.	.	129.755	newline	guitar
=66	=66	=66	=66	=66	=66	=66	=66	=66	=66	=66	=66
1I	G:maj	1r	.	1r	.	1r	.	.	131.7	.	guitar
=67	=67	=67	=67	=67	=67	=67	=67	=67	=67	=67	=67
2.IV	C:maj	1r	.	1r	.	1r	.	.	133.645	.	guitar
4IV	C:sus4	.	.	.	.	.	.	.	135.104	.	guitar
=68	=68	=68	=68	=68	=68	=68	=68	=68	=68	=68	=68
1IV	C:maj	1r	.	1r	.	1r	.	.	135.59	.	guitar
=69	=69	=69	=69	=69	=69	=69	=69	=69	=69	=69	=69
1I	G:maj	1r	.	1r	.	1r	.	.	137.535	newline	guitar
=70	=70	=70	=70	=70	=70	=70	=70	=70	=70	=70	=70
1V	D:maj	1r	.	1r	.	1r	.	.	139.465	.	guitar
=71	=71	=71	=71	=71	=71	=71	=71	=71	=71	=71	=71
1I	G:maj	1r	.	1r	.	1r	.	.	141.395	.	guitar
=72	=72	=72	=72	=72	=72	=72	=72	=72	=72	=72	=72
1I	G:maj	2r	.	2r	.	1r	.	.	143.326	.	guitar
.	.	8r	.	8r	.	.	.	.	.	.	.
.	.	8g	It's	8g	It's	.	.	.	.	.	.
.	.	8g	a	8g	a	.	.	.	.	.	.
.	.	[8b	hon-	[8g	hon-	.	.	.	.	.	.
=73	=73	=73	=73	=73	=73	=73	=73	=73	=73	=73	=73
*>Letter>C	*>Letter>C	*>Letter>C	*>Letter>C	*>Letter>C	*>Letter>C	*>Letter>C	*>Letter>C	*>Letter>C	*>Letter>C	*>Letter>C	*>Letter>C
*>Label>Chorus	*>Label>Chorus	*>Label>Chorus	*>Label>Chorus	*>Label>Chorus	*>Label>Chorus	*>Label>Chorus	*>Label>Chorus	*>Label>Chorus	*>Label>Chorus	*>Label>Chorus	*>Label>Chorus
1I	G:maj	2b_	_	2g_	_	4.B	Hon-	.	145.256	newline	voice
.	.	.	.	.	.	8G	-ky	.	.	.	.
.	.	8b]	_	8g]	_	4G	tonk	.	.	.	.
.	.	8a	_	8e	_	.	.	.	.	.	.
.	.	8g	_	8c	_	4r	.	.	.	.	.
.	.	8e#	_	8c#	_	.	.	.	.	.	.
=74	=74	=74	=74	=74	=74	=74	=74	=74	=74	=74	=74
1V	D:maj	[2f#	_	[2d	_	4.A	Hon-	.	147.199	.	voice
.	.	.	.	.	.	8F#	-ky	.	.	.	.
.	.	8f#]	_	8d]	_	2F#	tonk	.	.	.	.
.	.	8g	-ky	8d	-ky	.	.	.	.	.	.
.	.	4g	tonk	4B-	tonk	.	.	.	.	.	.
=75	=75	=75	=75	=75	=75	=75	=75	=75	=75	=75	=75
1I	G:maj	16b	wo-	16G	wo-	1r	.	.	149.142	.	voice
.	.	8.b	-man	8.G	-man	.	.	.	.	.	.
.	.	4r	.	4r	.	.	.	.	.	.	.
.	.	2r	.	2r	.	.	.	.	.	.	.
=76	=76	=76	=76	=76	=76	=76	=76	=76	=76	=76	=76
1I	G:maj	1r	.	1r	.	1r	.	.	151.085	.	voice
=77	=77	=77	=77	=77	=77	=77	=77	=77	=77	=77	=77
1I	G:maj	8b	Give	8g	Give	1r	.	.	153.029	newline	voice
.	.	4.b	me	4.g	me	.	.	.	.	.	.
.	.	8g	Give	8d	Give	.	.	.	.	.	.
.	.	4g	me	4d	me	.	.	.	.	.	.
.	.	8r	.	8r	.	.	.	.	.	.	.
=78	=78	=78	=78	=78	=78	=78	=78	=78	=78	=78	=78
1V	D:maj	8f#	Give	8d	Give	1r	.	.	154.951	.	voice
.	.	4f#	me	4d	me	.	.	.	.	.	.
.	.	8f#	the	8d	the	.	.	.	.	.	.
.	.	8f#	hon-	8d	hon-	.	.	.	.	.	.
.	.	8f#	-ky	8d	-ky	.	.	.	.	.	.
.	.	4d	tonk	8B-	tonk	.	.	.	.	.	.
.	.	.	.	8A	_	.	.	.	.	.	.
=79	=79	=79	=79	=79	=79	=79	=79	=79	=79	=79	=79
1I	G:maj	4d	blues	4G	blues	1r	.	.	156.873	.	voice
.	.	4r	.	4r	.	.	.	.	.	.	.
.	.	8r	.	2r	.	.	.	.	.	.	.
.	.	4g	Yeah	.	.	.	.	.	.	.	.
.	.	8G	now!	.	.	.	.	.	.	.	.
=80	=80	=80	=80	=80	=80	=80	=80	=80	=80	=80	=80
1I	G:maj	2r	.	2r	.	1r	.	.	158.796	.	voice
.	.	8r	.	8r	.	.	.	.	.	.	.
.	.	8g	It's	8g	It's	.	.	.	.	.	.
.	.	8g	a	8g	a	.	.	.	.	.	.
.	.	[8b	hon-	[8g	hon-	.	.	.	.	.	.
=81	=81	=81	=81	=81	=81	=81	=81	=81	=81	=81	=81
*>Letter>C	*>Letter>C	*>Letter>C	*>Letter>C	*>Letter>C	*>Letter>C	*>Letter>C	*>Letter>C	*>Letter>C	*>Letter>C	*>Letter>C	*>Letter>C
*>Label>Chorus	*>Label>Chorus	*>Label>Chorus	*>Label>Chorus	*>Label>Chorus	*>Label>Chorus	*>Label>Chorus	*>Label>Chorus	*>Label>Chorus	*>Label>Chorus	*>Label>Chorus	*>Label>Chorus
1I	G:maj	2b_	_	2g_	_	4.B	Hon-	.	160.718	newline	voice
.	.	.	.	.	.	8G	-ky	.	.	.	.
.	.	8b]	_	8g]	_	4G	tonk	.	.	.	.
.	.	8a	_	8e	_	.	.	.	.	.	.
.	.	8g	_	8c	_	4r	.	.	.	.	.
.	.	8e#	_	8c#	_	.	.	.	.	.	.
=82	=82	=82	=82	=82	=82	=82	=82	=82	=82	=82	=82
1V	D:maj	[2f#	_	[2d	_	4.A	Hon-	.	162.649	.	voice
.	.	.	.	.	.	8F#	-ky	.	.	.	.
.	.	8f#]	_	8d]	_	2F#	tonk	.	.	.	.
.	.	8g	-ky	8d	-ky	.	.	.	.	.	.
.	.	4g	tonk	4B-	tonk	.	.	.	.	.	.
=83	=83	=83	=83	=83	=83	=83	=83	=83	=83	=83	=83
1I	G:maj	16b	wo-	16G	wo-	1r	.	.	164.58	.	voice
.	.	8.b	-man	8.G	-man	.	.	.	.	.	.
.	.	4r	.	4r	.	.	.	.	.	.	.
.	.	2r	.	2r	.	.	.	.	.	.	.
=84	=84	=84	=84	=84	=84	=84	=84	=84	=84	=84	=84
1I	G:maj	1r	.	1r	.	1r	.	.	166.51	.	voice
=85	=85	=85	=85	=85	=85	=85	=85	=85	=85	=85	=85
1I	G:maj	8b	Give	8g	Give	1r	.	.	168.441	newline	voice
.	.	4.b	me	4.g	me	.	.	.	.	.	.
.	.	8g	Give	8d	Give	.	.	.	.	.	.
.	.	4g	me	4d	me	.	.	.	.	.	.
.	.	8r	.	8r	.	.	.	.	.	.	.
=86	=86	=86	=86	=86	=86	=86	=86	=86	=86	=86	=86
1V	D:maj	8f#	Give	8d	Give	1r	.	.	170.382	.	voice
.	.	4f#	me	4d	me	.	.	.	.	.	.
.	.	8f#	the	8d	the	.	.	.	.	.	.
.	.	8f#	hon-	8d	hon-	.	.	.	.	.	.
.	.	8f#	-ky	8d	-ky	.	.	.	.	.	.
.	.	4d	tonk	8B-	tonk	.	.	.	.	.	.
.	.	.	.	8A	_	.	.	.	.	.	.
=87	=87	=87	=87	=87	=87	=87	=87	=87	=87	=87	=87
4I	G:maj	4d	blues	4G	blues	1r	.	.	172.324	.	voice
4Ib	G:maj/3	4r	.	4r	.	.	.	.	172.809	.	voice
4If	G:maj/4	2r	.	2r	.	.	.	.	173.294	.	voice
4If	G:maj/#4	.	.	.	.	.	.	.	173.78	.	voice
=88	=88	=88	=88	=88	=88	=88	=88	=88	=88	=88	=88
2Ic	G:maj/5	1r	.	1r	.	1r	.	.	174.265	.	voice
2I	G:maj	.	.	.	.	.	.	.	175.236	.	voice
1r;	N	r;	.	r;	.	r;	.	.	179.119	.	r
1r;	N	r;	.	r;	.	r;	.	.	182.282	.	r
*-	*-	*-	*-	*-	*-	*-	*-	*-	*-	*-	*-
!!!BillboardChartDate: 1969/07/19, 1969/10/04
!!!BillboardPeak: 1, 1
!!!BillboardWeeksOnChart: 15, 15
!!!COC: The Rolling Stones
!!!ENC: Nathaniel Condit-Schultz
!!!EST: Awating manual error checking and editing.
!!!OTL: Honky Tonk Women
!!!RDF**harte: Chris Harte's syntax, used by MIREX
!!!RDF**harmony: **recip + pitch class of root + harmonic quality
!!!RDF**leadinstrument: original McGill primary instrumentation annotation
!!!RDF**phrase: newline = linebreak in original McGill transcription
!!!RDF**timestamp: McGill audio timestamp in seconds
!!!RDT: 2017/01/12/
!!!SampleActualRank: 79,  6
!!!SampleID#: 229, 1266
!!!SampleTargetRank: 78,  7
!!!MBID: 18c646bf-3aca-42c0-b525-26f178f02ea9
